www/assets/icons/waterfall_chart.svg

<svg xmlns="http://www.w3.org/2000/svg" width="24" height="24" viewBox="0 0 24 24" fill='currentColor'><path d="M18 4h3v16h-3zM3 13h3v7H3zm11-9h3v3h-3zm-4 1h3v4h-3zm-3 5h3v4H7z"/></svg>

<svg width="24" height="24" viewBox="0 0 24 24" xmlns="http://www.w3.org/2000/svg" fill='currentColor'><path d="M18 4H21V20H18V4ZM3 13H6V20H3V13ZM14 4H17V7H14V4ZM10 5H13V9H10V5ZM7 10H10V14H7V10Z"/></svg>
